X:540
T: Tom Connors' HP
T: Cornph\'iopa Thom\'ais U\'i Chonch\'uir
S: B.Breathnach: "Ceol Rince na hEireann" II/304
Z: B.Black
L: 1/8
M: 4/4
R: hornpipe
K: G
Bc|dBcA GBdB|ADFE DFAF|G2 GF GBdB|A2 AG Aefe|
dBcA GBdB|ADFE DFAf|g2 fg ecAF|G2 GG G2 :|
Bc|dg g2 dg g2|dgfg fdcd|eeaf gfed|cdef gfge|
dBcA GBdB|ADFE DFAf|g2 fg ecAF|G2 GG G2 :|
